!!!!SEGMENT: pl-sa--424-a-viii-64_anonim--haec-dies.krn
!!!cenid: 17xx:1361
!!!COM: Anonim
!!!COM-rismID: pe30004985
!!!CDT:
!!!CNT:
!!!OTL: Haec dies
!!!PDT:
!!!AGN:
!!!SMS-siglum: PL-SA
!!!SMS-shelfmark: 424/A VIII 64
!!!SMS-shelfwork: W
!!!SMS-variant:
!!!SMS-altvar:
!!!NIFC-rismSourceID: 1001039116
!!!NIFC-rismChildID: 1001039116
!!!NIFC-islandoraID: none
!!!URL-pdf-islandora:
!!!URL-scan: https://bc.bdsandomierz.pl/dlibra/publication/1725/edition/1693/content @EN{Scan in the Sandomierz Diocese Digital Library} @PL{Skany w portalu Cyfrowa Biblioteka Diecezjalna w Sandomierzu}
!!!IIIF:
!!!ONB-nifc:
!!!AIN: 1 alto 1 empty 1 organ 1 tenor 1 viola 2 violn 2 vox
!!!key:
**kern	**fba	**kern	**kern	**kern	**kern	**text	**kern	**text	**kern	**text	**kern	**text	**kern	**text
*part9	*part9	*part8	*part7	*part6	*part5	*part5	*part4	*part4	*part3	*part3	*part2	*part2	*part1	*part1
*staff9	*staff9	*staff8	*staff7	*staff6	*staff5	*staff5	*staff4	*staff4	*staff3	*staff3	*staff2	*staff2	*staff1	*staff1
*Iorgan	*	*Iviola	*Ivioln	*Ivioln	*Iempty	*	*Itenor	*	*Ialto	*	*Ivox	*	*Ivox	*
*I"Organo	*	*I"Viola	*I"Violino Secundi	*I"Violino 1mo.	*I"Baſso	*	*I"Tenore	*	*I"Alto	*	*I"Canto Secundo	*	*I"Canto. 1mo.	*
*I'org	*	*I'vla	*I'vl 2	*I'vl 1	*I'B	*	*I'T	*	*I'A	*	*I'S 2	*	*I'S 1	*
*clefF4	*	*clefF4	*clefG2	*clefG2	*clefF4	*	*clefC4	*	*clefC3	*	*clefC1	*	*clefC1	*
*k[]	*	*k[]	*k[]	*k[]	*k[]	*	*k[]	*	*k[]	*	*k[]	*	*k[]	*
*C:	*	*C:	*C:	*C:	*C:	*	*C:	*	*C:	*	*C:	*	*C:	*
*M4/4	*	*M4/4	*M4/4	*M4/4	*M4/4	*	*M4/4	*	*M4/4	*	*M4/4	*	*M4/4	*
*met(c)	*	*met(c)	*met(c)	*met(c)	*met(c)	*	*met(c)	*	*met(c)	*	*met(c)	*	*met(c)	*
=1	=1	=1	=1	=1	=1	=1	=1	=1	=1	=1	=1	=1	=1	=1
!LO:TX:t=P:problem=metrum C z ogonkiem	!	!	!	!LO:TX:a:t=J m P Btorski	!	!	!	!	!	!	!LO:SIC:o:s:=:v:all\right	!	!	!
!LO:TX:b:t=Haec dies	!	!LO:TX:b:t=Haec dies	!LO:TX:b:t=Haec dies Tutti	!LO:TX:b:t=Haec dies Tutty	!	!	!	!	!	!	!	!	!	!
!LO:TX:t=P:problem=brak nazwy instrumentu	!	!LO:TX:t=P:problem=metrum C z ogonkiem	!LO:TX:t=P:problem=metrum C z ogonkiem	!LO:TX:t=P:problem=metrum C z ogonkiem	!LO:TX:t=P:problem=metrum C z ogonkiem	!	!LO:TX:t=P:problem=metrum C z ogonkiem	!	!LO:TX:t=P:problem=metrum C z ogonkiem	!	!LO:TX:t=P:problem=metrum C z ogonkiem	!	!LO:TX:t=P:problem=metrum C alla breve	!
4r	.	4r	4r	4r	4r	.	4r	.	4r	.	4r	.	4r	.
!LO:TX:a:t=Tutti	!	!LO:TX:a:t=Tutti	!	!	!	!	!	!	!	!	!	!	!LO:TX:a:t=Tutti.	!
4C/	.	4C/	4ee\	4gg\	4C/	Haec	4e\	Haec	4g\	Haec	4cc\	Haec	4g/	Haec
4C/	.	4C/	4ee\	4gg\	4C/	di-	4c\	di-	4g\	di-	4ee\	di-	4cc\	di-
8BB/L	6	8BB/L	8gg\L	8dd\L	8BB/	-es	8d\	-es	8g\	-es	8b\	-es	8dd\	-es
8BB/J	.	8BB/J	8dd\J	8gg\J	8BB/	quam	8B\	quam	8g\	quam	8b\	quam	8dd\	quam
=2	=2	=2	=2	=2	=2	=2	=2	=2	=2	=2	=2	=2	=2	=2
!LO:TX:b:t=quam fecit	!	!LO:TX:b:t=quam fecit	!	!	!	!	!	!	!	!	!	!	!	!
4C/	.	4C/	4gg\	4ee\	4C/	fe-	4G/	fe-	4g\	fe-	4cc\	fe-	4ee\	fe-
8C/L	.	8C/L	8gg\L	8ee\L	8C/	-cit	8c\	-cit	8g\	-cit	8cc\	-cit	8ee,<\	-cit,
8E/J	6	8E/J	8gg\J	8ee\J	8E\	quam	8G/	quam	8g\	quam	8cc\	quam	8gg\	quam
8F\L	.	8F\L	8ff\L	8aa\L	8F\	fe-	8A/	fe-	8a\	fe-	8a\	fe-	8ff\	fe-
8C\J	.	8C\J	8ee\J	8gg\J	8C/	-cit	8G/	-cit	8e\	-cit	8cc\	-cit	8ee\	-cit
4G\	4	4G\	8.gg\L	8.dd\L	8.G\	Do-	8.G/	Do-	8.g\	Do-	8.cc\	Do-	8.dd\	Do-
.	3	.	16dd\Jk	16gg\Jk	16G\	-mi-	16G/	-mi-	16f\	-mi-	16b\	-mi-	16dd\	-mi-
=3	=3	=3	=3	=3	=3	=3	=3	=3	=3	=3	=3	=3	=3	=3
!LO:TX:b:t=Symphoni	!	!LO:TX:b:t=Symph	!	!	!	!	!	!	!	!	!	!	!	!
4C/	.	4C/	4cc\	4ee\	4C/	-nus	4G/	-nus	4e\	-nus	4cc\	-nus	4cc,<\	-nus,
!	!	!	!LO:TX:b:t=Symphonia	!LO:TX:b:t=Symphonia	!	!	!	!	!	!	!	!	!	!
4C/	.	4C/	4cc\	4g/	4r	.	4r	.	4r	.	4r	.	4r	.
4C/	.	4C/	4ee\	4cc\	2r	.	2r	.	2r	.	2r	.	2r	.
8BB/L	.	8BB/L	8b/L	8dd\L	.	.	.	.	.	.	.	.	.	.
8BB/J	6	8BB/J	8b/J	8dd\J	.	.	.	.	.	.	.	.	.	.
=4	=4	=4	=4	=4	=4	=4	=4	=4	=4	=4	=4	=4	=4-	=4
!	!	!	!	!	!	!	!LO:TX:a:t=1	!	!	!	!	!	!LO:TX:t=P:problem=brak kreski taktowej	!
4C/	.	4C/	4cc\	4ee\	1r	.	1r	.	1r	.	1r	.	1r	.
8C/L	.	8C/L	8cc\L	8ee\L	.	.	.	.	.	.	.	.	.	.
8E/J	.	8E/J	8cc\J	8gg\J	.	.	.	.	.	.	.	.	.	.
8F\L	.	8F\L	8a\L	(16aa\LL	.	.	.	.	.	.	.	.	.	.
.	.	.	.	16gg\	.	.	.	.	.	.	.	.	.	.
8C\J	.	8C\J	8cc\J	16ff\	.	.	.	.	.	.	.	.	.	.
.	.	.	.	16ee\JJ)	.	.	.	.	.	.	.	.	.	.
4G\	4	4G\	8.cc\L	8.dd\L	.	.	.	.	.	.	.	.	.	.
.	3	.	16b\Jk	16dd\Jk	.	.	.	.	.	.	.	.	.	.
=5	=5	=5	=5	=5	=5	=5	=5	=5	=5	=5	=5	=5	=5	=5
!LO:TX:b:t=voces	!	!LO:TX:b:t=voces	!	!	!	!	!	!	!	!	!	!	!	!
4C/	.	4C/	4cc\	4cc\	4r	.	4r	.	4r	.	4r	.	4r	.
8r	.	8r	4r	4r	8r	.	8r	.	8r	.	8r	.	8r	.
8C/	.	8C/	.	.	8C/	quam	8G/	quam	8g\	quam	8cc\	quam	8ee\	quam
4G\	.	4G\	2r	2r	8G\	fe-	8B\	fe-	8g\	fe-	8b\	fe-	8dd\	fe-
.	.	.	.	.	8G\	-cit	8G/	-cit	8g\	-cit	8b\	-cit	8dd,<\	-cit,
8r	.	8r	.	.	8r	.	8r	.	8r	.	8r	.	8r	.
*	*	*	*	*	*	*ij	*	*ij	*	*ij	*	*ij	*	*
8D/	.	8D/	.	.	8D/	quam	8A/	quam	8a\	quam	8dd\	quam	8ff\	quam
!	!	!LO:LB:g=original	!	!	!	!	!	!	!	!	!	!	!LO:LB:g=original	!
=6	=6	=6	=6	=6	=6	=6	=6	=6	=6	=6	=6	=6	=6	=6
4A\	.	4A\	1r	1r	8A\	fe-	8c\	fe-	8a\	fe-	8cc\	fe-	8ee\	fe-
.	.	.	.	.	8A\	-cit	8A/	-cit	8a\	-cit	8cc\	-cit	8ee,<\	-cit,
*	*	*	*	*	*	*Xij	*	*Xij	*	*Xij	*	*Xij	*	*
!	!	!	!	!	!LO:LB:g=original	!	!	!	!	!	!	!	!	!
8r	.	8r	.	.	8r	.	8r	.	8r	.	8r	.	8r	.
8E\L	.	8E\L	.	.	8C/	quam	8e\	quam	8g\	quam	8ee\	quam	8gg\	quam
!	!	!	!	!	!	!	!	!	!	!	!LO:LB:g=original	!	!	!
8F\	.	8F\	.	.	8F\	fe-	8c\	fe-	8f\	fe-	(16ff\LL	fe-	(16aa\LL	fe-
.	.	.	.	.	.	.	.	.	.	.	16ee\JJ)	.	16gg\JJ)	.
!	!	!	!	!	!	!	!	!	!LO:LB:g=original	!	!	!	!	!
8C\J	.	8C\J	.	.	8C/	-cit	8c\	-cit	8g\	-cit	(16dd\LL	-cit	(16ff\LL	-cit
.	.	.	.	.	.	.	.	.	.	.	16cc\JJ)	.	16ee\JJ)	.
!	!	!	!	!	!	!	!LO:LB:g=original	!	!	!	!	!	!	!
4G\	.	4G\	.	.	8.G\	Do-	8.G/	Do-	8.g\	Do-	8.cc\	Do-	8.dd\	Do-
.	.	.	.	.	16G\	-mi-	16G/	-mi-	16f\	-mi-	16b\	-mi-	16dd\	-mi-
!LO:LB:g=original	!	!	!	!	!	!	!	!	!	!	!	!	!	!
=7	=7	=7	=7	=7	=7	=7	=7	=7	=7	=7	=7	=7	=7	=7
4C/	.	4C/	4r	4r	4C/	-nus	4G/	-nus	4e\	-nus	4cc\	-nus	4ee,<\	-nus,
8r	.	8r	8r	8r	4r	.	4r	.	4r	.	4r	.	4r	.
!LO:TX:b:t=violin	!	!LO:TX:b:t=Symphonia	!	!LO:TX:b:t=Tutti	!	!	!	!	!	!	!	!	!	!
8C/	.	8C/	8cc\L	8ee\L	.	.	.	.	.	.	.	.	.	.
4G\	.	4G\	8b\	8dd\	2r	.	2r	.	2r	.	2r	.	2r	.
.	.	.	8b\J	8dd\J	.	.	.	.	.	.	.	.	.	.
8r	.	8r	8r	8r	.	.	.	.	.	.	.	.	.	.
8BB/	.	8BB/	8dd\	8ff\	.	.	.	.	.	.	.	.	.	.
!	!	!	!	!LO:LB:g=original	!	!	!	!	!	!	!	!	!	!
=8	=8	=8	=8	=8	=8	=8	=8	=8	=8	=8	=8	=8	=8-	=8
!	!	!	!	!	!	!	!	!	!	!	!	!	!LO:TX:a:t=1	!
4A\	.	4A\	8cc\L	8ee\L	1r	.	1r	.	1r	.	1r	.	1r	.
.	.	.	8cc\J	8ee\J	.	.	.	.	.	.	.	.	.	.
!	!	!	!LO:LB:g=original	!	!	!	!	!	!	!	!	!	!	!
8r	.	8r	8r	8r	.	.	.	.	.	.	.	.	.	.
8C\L	.	8C/L	8ee\	8gg\	.	.	.	.	.	.	.	.	.	.
8F\	.	8F/	16ff\LL	(16aa\LL	.	.	.	.	.	.	.	.	.	.
.	.	.	16ee\	16gg\)	.	.	.	.	.	.	.	.	.	.
8C\J	.	8C/J	16dd\	(16ff\	.	.	.	.	.	.	.	.	.	.
.	.	.	16cc\JJ	16ee\JJ)	.	.	.	.	.	.	.	.	.	.
4G\	.	4G\	8.cc\L	8.dd\L	.	.	.	.	.	.	.	.	.	.
.	.	.	16b\Jk	16dd\Jk	.	.	.	.	.	.	.	.	.	.
=9	=9	=9	=9	=9	=9	=9	=9	=9	=9	=9	=9	=9	=9	=9
!LO:TX:b:t=Tutti quam fecit	!	!LO:TX:b:t=Tutt quam fecit	!	!	!	!	!	!	!	!	!	!	!	!
4C/	.	4C/	4cc\	4ee\	4r	.	4r	.	4r	.	4r	.	4r	.
8r	.	8r	8r	8r	8r	.	8r	.	8r	.	8r	.	8r	.
!	!	!	!	!	!	!	!	!	!	!	!LO:TX:a:t=Tutti	!	!	!
8C/	.	8C/	8ee\L	8gg\	8C/	quam	8G/	quam	8g\	quam	8cc\	quam	8ee\	quam
4D/	.	4D/	8aa\	8ff\L	8D/	fe-	8d\	fe-	8f\	fe-	8b\	fe-	8dd\	fe-
.	.	.	8ff\J	8aa\J	8D/	-cit	8d\	-cit	8f\	-cit	8b\	-cit	8dd\	-cit
8r	.	8r	8r	8r	8r	.	8r	.	8r	.	8r	.	8r	.
*	*	*	*	*	*	*ij	*	*ij	*	*ij	*	*	*	*
8D/	.	8D/	8ff\	8aa\	8D/	quam	8A/	quam	8d\	quam	8dd\	quam	8ff\	quam
=10	=10	=10	=10	=10	=10	=10	=10	=10	=10	=10	=10	=10	=10	=10
4E\	6	4E\	8ccc\L	8gg\L	8E\	fe-	8G/	fe-	8g\	fe-	8cc\	fe-	8ee\	fe-
.	.	.	8ccc\J	8gg\J	8E\	-cit	8E/	-cit	8g\	-cit	8cc\	-cit	8ee\	-cit
8r	.	8r	8r	8r	8r	.	8r	.	8r	.	8r	.	8r	.
*	*	*	*	*	*	*Xij	*	*	*	*	*	*ij	*	*
8E\	.	8E\	8gg\L	8ccc\	8E\	quam	8G/	quam	8g\	quam	8ee\	quam	8ee\	quam
4F\	.	4F\	8ff\	8aa\L	8F\	fe-	8c\	fe-	8a\	fe-	8ff\	fe-	8cc\	fe-
.	.	.	8ff\J	8aa\J	8F\	-cit	8A/	-cit	8f\	-cit	8ff\	-cit	8cc\	-cit
*	*	*	*	*	*	*	*	*Xij	*	*	*	*	*	*
8r	.	8r	8r	8r	8r	.	8r	.	8r	.	8r	.	8r	.
8F#X\	6	8F#X\	8cc\	8aa\	8F\	quam	8d\	quam	8d\	quam	8a\	quam	8dd\	/quam
=11	=11	=11	=11	=11	=11	=11	=11	=11	=11	=11	=11	=11	=11	=11
4G\	.	4G\	8dd\L	8gg\L	8G\	fe-	8d\	fe-	8g\	fe-	8b\	fe-	8dd\	fe-
.	.	.	8dd\J	8gg\J	8G\	-cit	8B\	-cit	8g\	-cit	8b\	-cit	8dd,<\	-cit/
*	*	*	*	*	*	*	*	*	*	*Xij	*	*Xij	*	*
!	!	!LO:LB:g=original	!	!	!LO:LB:g=original	!	!	!	!	!	!	!	!LO:LB:g=original	!
8r	.	8r	8r	8r	8r	.	8r	.	8r	.	8r	.	8r	.
8G\L	.	8G\L	8gg\	8dd\	8G\	quam	8B\	quam	8g\	quam	8dd\	quam	8b\	quam
8A\	.	8A\	8ff\L	8aa\L	8A\	fe-	8e\	fe-	8f\	fe-	8a\	fe-	8cc\	fe-
8B\J	.	8B\J	8dd\	8gg\J	8B\	-cit	8d\	-cit	8f\	-cit	8g/	-cit	8dd\	-cit
8c\L	.	8c\L	8gg\	8ee\L	8c\	fe-	8c\	fe-	8e\	fe-	8cc\	fe-	8ee\	fe-
8E\J	.	8E\J	8cc\J	8ee\J	8E\	-cit	8G/	-cit	8c/	-cit	8cc\	-cit	8ee\	-cit,
!	!	!	!	!	!	!	!	!	!LO:LB:g=original	!	!LO:LB:g=original	!	!	!
=12	=12	=12	=12	=12	=12	=12	=12	=12	=12	=12	=12	=12	=12	=12
8F\L	6 5	8F\L	4.dd\	8aa\L	(8F\L	Do-	4.A/	Do-	4.f\	Do-	4.cc\	Do-	4.dd\	Do-
8C\J	6 4	8C\J	.	8gg\J	8E\J)	.	.	.	.	.	.	.	.	.
4G\	7 4	4G\	.	8gg\L	8.G\	.	.	.	.	.	.	.	.	.
.	5 3	.	8dd\	8gg\J	.	.	8B\	-mi-	8f\	-mi-	8b\	-mi-	8dd\	-mi-
.	.	.	.	.	16GG/	-mi-	.	.	.	.	.	.	.	.
4C/	.	4C/	4ee\	4gg\	4C/	-nus	4G/	-nus	4e\	-nus	4cc\	-nus	4ee,<\	-nus,
4r	.	4r	4r	4r	4r	.	4r	.	4r	.	(16cc\LL	e-	(16ee\LL	E-
.	.	.	.	.	.	.	.	.	.	.	16dd\JJ)	.	16ff\JJ)	.
.	.	.	.	.	.	.	.	.	.	.	(16cc\LL	-xul-	(16ee\LL	-xul-
.	.	.	.	.	.	.	.	.	.	.	16b\JJ)	.	16dd\JJ)	.
!LO:LB:g=original	!	!	!	!LO:LB:g=original	!	!	!LO:LB:g=original	!	!	!	!	!	!	!
=13	=13	=13	=13	=13	=13	=13	=13	=13	=13	=13	=13	=13	=13	=13
4r	.	4r	4r	4r	4r	.	4r	.	4r	.	8a\	-te-	8cc\	-te-
.	.	.	.	.	.	.	.	.	.	.	8a\	-mus	8cc,<\	-mus,
!LO:TX:b:t=Exultemus	!	!LO:TX:b:t=Et laetemur	!	!	!	!	!	!	!	!	!	!	!	!
8F\L	.	8F\L	8ff\L	8aa\L	8F\	Et	8c\	E-	8a\	E-	4r	.	4r	.
8E\	6	8E\	8gg\	8ccc\J	8E\	lae-	8c\	-xul-	8g\	-xul-	.	.	.	.
8F\	.	8F\	8ff\	8aa\L	8F\	-te-	8c\	-te-	8a\	-te-	4r	.	4r	.
8D\J	.	8D\J	8ee\J	8aa\J	8D/	-mur	8d\	-mus	8f\	-mus	.	.	.	.
4r	.	4r	4r	4r	4r	.	4r	.	4r	.	(16dd\LL	et	(16ff\LL	et
.	.	.	.	.	.	.	.	.	.	.	16ee\JJ)	.	16gg\JJ)	.
.	.	.	.	.	.	.	.	.	.	.	(16dd\LL	le-	(16ff\LL	le-
.	.	.	.	.	.	.	.	.	.	.	16cc\JJ)	.	16ee\JJ)	.
!	!	!	!LO:LB:g=original	!	!	!	!	!	!	!	!	!	!	!
=14	=14	=14	=14	=14	=14	=14	=14	=14	=14	=14	=14	=14	=14	=14
4r	.	4r	4r	4r	4r	.	4r	.	4r	.	8b\	-te-	8dd\	-te-
.	.	.	.	.	.	.	.	.	.	.	8b\	-mur,	8dd,<\	-mur,
8G\L	.	8G\L	8dd\L	8gg\L	8G\	Et	8B\	Et	8d\	Et	4r	.	4r	.
8F\	6	8F\	8ee\	8aa\J	8F\	lae-	8A/	lae-	8d\	lae-	.	.	.	.
8G\	.	8G\	8dd\	8gg\L	8G\	-te-	8B\	-te-	8c/	-te-	4r	.	4r	.
8E\J	.	8E\J	8ee\J	8gg\J	8E\	-mur	8G/	-mur	8e\	-mur	.	.	.	.
4r	.	4r	4r	4r	4r	.	4r	.	4r	.	(16ee\LL	Et	16gg\LL	et
.	.	.	.	.	.	.	.	.	.	.	16ff\JJ)	.	16aa\JJ	.
.	.	.	.	.	.	.	.	.	.	.	(16ee\LL	lae-	16gg\LL	lae-
.	.	.	.	.	.	.	.	.	.	.	16dd\JJ)	.	16ff\JJ	.
=15	=15	=15	=15	=15	=15	=15	=15	=15	=15	=15	=15	=15	=15	=15
4r	.	4r	4r	4r	4r	.	4r	.	4r	.	8cc\	-te-	8ee\	-te-
.	.	.	.	.	.	.	.	.	.	.	8cc\	-mur	8ee,<\	-mur,
!	!	!	!	!	!	!	!	!	!	!	!	!	!LO:LB:g=original	!
8A\L	.	8A\L	8aa\L	8ee\L	8A\	Et	8c\	Et	8e\	E-	4r	.	4r	.
8G\	6	8G\	8bb\	8gg\J	8G\	lae-	8B\	lae-	8e\	-xul-	.	.	.	.
!	!	!	!	!	!LO:PB:g=original	!	!	!	!	!	!	!	!	!
8A\	.	8A\	8aa\	8aa\L	8A\	-te-	8c\	-te-	8e\	-te-	8r	.	8r	.
8E\J	6	8E\J	8gg\J	8ccc\J	16E\	-mur	16c\	-mur	16e\	-mus	8cc\L	in	8ee\	in
.	.	.	.	.	16F\	in	16G/	in	16g\	in	.	.	.	.
4G\	.	4G\	4gg\	8.ccc\L	4G\	e-	4B\	e-	(8.g\	e-	(8cc\	e-	4dd\	e-
.	.	.	.	.	.	.	.	.	.	.	8cc\J	.	.	.
.	.	.	.	16bb\Jk	.	.	.	.	16f\)	.	.	.	.	.
=16	=16	=16	=16	=16	=16	=16	=16	=16	=16	=16	=16	=16	=16	=16
!LO:TX:b:t=Alleluia	!	!	!	!	!	!	!	!	!	!	!	!	!	!
4C/	.	4C/	4ee\	4aa\	4C/	-a	4G/	-a	4e\	-a	4cc\)	-a	4ee,<\	-a,
4D/	.	4D/	(16cc\LL	(16ee\LL	4r	.	4r	.	4r	.	(16cc\LL	Al-	(16ee\LL	E-
.	.	.	16dd\)	16ff\)	.	.	.	.	.	.	16dd\JJ)	.	16ff\JJ)	.
.	.	.	(16cc\	(16ee\	.	.	.	.	.	.	(16cc\LL	-le-	(16ee\LL	-xul-
.	.	.	16b\JJ)	16dd\JJ)	.	.	.	.	.	.	16b\JJ)	.	16dd\JJ)	.
4F\	.	4F\	8a/L	8cc\L	4F\	Al-	(16A\LL	Al-	(16c\LL	Al-	8a\	-lu-	8cc\	-te-
.	.	.	.	.	.	.	16B\JJ)	.	16d\JJ)	.	.	.	.	.
.	.	.	8a/J	8cc\J	.	.	(16A\LL	-le-	(16c\LL	-le-	8a\	-ia	8cc,<\	-mus,
.	.	.	.	.	.	.	16G\JJ)	.	16B\JJ)	.	.	.	.	.
!	!	!	!	!	!	!	!	!	!LO:PB:g=original	!	!LO:PB:g=original	!	!	!
4D/	.	4D/	(16dd\LL	(16ff\LL	4D/	-le-	8F/	-lu-	8A/	-lu-	(16dd\LL	Al-	(16ff\LL	al-
.	.	.	16ee\)	16gg\)	.	.	.	.	.	.	16ee\JJ)	.	16gg\JJ)	.
.	.	.	(16dd\	(16ff\	.	.	8F/	-ia	8A/	-ia	(16dd\LL	-le-	(16ff\LL	-le-
.	.	.	16cc\JJ)	16ee\JJ)	.	.	.	.	.	.	16cc\JJ)	.	16ee\JJ)	.
=17	=17	=17	=17	=17	=17	=17	=17	=17	=17	=17	=17	=17	=17	=17
4G\	.	4G\	8b/L	8dd\L	4G\	-lu-	(16B\LL	Al-	(16d\LL	Al-	8b\	-lu-	8dd\	-lu-
.	.	.	.	.	.	.	16c\JJ)	.	16e\JJ)	.	.	.	.	.
.	.	.	8b/J	8dd\J	.	.	(16B\LL	-le-	(16d\LL	-le-	8b\	-ia	8dd,<\	-ia,
.	.	.	.	.	.	.	16A\JJ)	.	16c\JJ)	.	.	.	.	.
4E\	.	4E\	(16ee\LL	(16gg\LL	4E\	-ia	8G/	-lu-	8B/	-lu-	(16ee\LL	Al-	(16gg\LL	al-
.	.	.	16ff\)	16aa\)	.	.	.	.	.	.	16ff\JJ)	.	16aa\JJ)	.
.	.	.	(16ee\	(16gg\	.	.	8G/	-ia	8B/	-ia	(16ee\LL	-le-	(16gg\LL	-le-
.	.	.	16dd\JJ)	16ff\JJ)	.	.	.	.	.	.	16dd\JJ)	.	16ff\JJ)	.
4A\	.	4A\	8cc\L	8ee\L	4A\	Al-	(16c\LL	Al-	(16e\LL	Al-	8cc\	-lu-	8ee\	-lu-
.	.	.	.	.	.	.	16d\JJ)	.	16f\JJ)	.	.	.	.	.
.	.	.	8cc\J	8ff\	.	.	(16c\LL	-le-	(16e\LL	-le-	8cc\	-ia	8ee,<\	-ia,
.	.	.	.	.	.	.	16B\JJ)	.	16d\JJ)	.	.	.	.	.
!	!	!	!	!	!	!	!LO:PB:g=original	!	!	!	!	!	!	!
4F\	.	4F\	8dd\L	8ff\	4F\	-le-	8A/	-lu-	8c/	-lu-	8dd\	Al-	8ff\	al-
.	.	.	8dd\J	8ff\J	.	.	8A/	-ia	8c/	-ia	8dd\	-le-	8ff\	-le-
!	!	!LO:LB:g=original	!	!	!	!	!	!	!	!	!	!	!	!
=18	=18	=18	=18	=18	=18	=18	=18	=18	=18	=18	=18	=18	=18	=18
4G\	6 5	4G\	4dd\	4ff\	(4G\	-lu-	(16e\LL	Al-	4r	.	(4dd\	-lu-	16ee\LL	-lu-
.	.	.	.	.	.	.	16f\JJ)	.	.	.	.	.	16cc\	.
.	.	.	.	.	.	.	(16e\LL	-le-	.	.	.	.	16dd\	.
.	.	.	.	.	.	.	16d\JJ)	.	.	.	.	.	16ee\JJ	.
!	!	!	!	!	!	!	!	!	!	!	!LO:TX:a:t=P:problem=# above	!	!	!
4A\	5 4	4A\	4cc\	4ee\	4A\)	.	8d\L	-lu-	(16g\LL	.	4cc#X\	.	16cc\LL	.
.	.	.	.	.	.	.	.	.	16a\JJ)	.	.	.	16b\	.
.	x 3	.	.	.	.	.	8c\J	.	(16g\LL	.	.	.	16cc\	.
.	.	.	.	.	.	.	.	.	16f\JJ)	.	.	.	16dd\JJ	.
4D/	.	4D/	4dd\	4dd\	4D/	-ia	4d\	-ia	4e\	.	4dd\)	-ia	4cc\	-ia
!	!	!	!	!	!	!	!	!	!LO:TX:a:t=P:problem=# above	!	!	!	!	!
4r	.	4r	(16dd\LL	16ff\LL	4r	.	4r	.	4f#X\	.	4r	.	4r	.
.	.	.	16ee\	16gg\	.	.	.	.	.	.	.	.	.	.
.	.	.	16dd\	16ff\	.	.	.	.	.	.	.	.	.	.
.	.	.	16cc\JJ)	16ee\JJ	.	.	.	.	.	.	.	.	.	.
!	!	!	!	!LO:TX:b:t=verte\ncito	!	!	!	!	!	!	!	!	!LO:TX:b:t=Verte	!
!	!	!	!	!LO:PB:g=original	!	!	!	!	!	!	!	!	!LO:PB:g=original	!
=19	=19	=19	=19	=19	=19	=19	=19	=19	=19	=19	=19	=19	=19	=19
!	!	!	!	!	!LO:TX:a:t=2	!	!LO:TX:a:t=2	!	!LO:TX:a:t=2	!	!LO:TX:a:t=2	!	!LO:TX:a:t=2	!
4G\	.	4G\	4r	4r	0r	.	0r	.	0r	.	0r	.	0r	.
4r	.	4r	16ee\LL	(16gg\LL	.	.	.	.	.	.	.	.	.	.
.	.	.	16ff\	16aa\)	.	.	.	.	.	.	.	.	.	.
.	.	.	16ee\	(16gg\	.	.	.	.	.	.	.	.	.	.
.	.	.	16dd\JJ	16ff\JJ)	.	.	.	.	.	.	.	.	.	.
4A\	.	4A\	4r	4r	.	.	.	.	.	.	.	.	.	.
!	!	!	!LO:TX:b:t=verte\ncito	!	!	!	!	!	!	!	!	!	!	!
!	!	!	!LO:PB:g=original	!	!	!	!	!	!	!	!	!	!	!
4r	.	4r	(16ff\LL	(16aa\LL	.	.	.	.	.	.	.	.	.	.
.	.	.	16gg\)	16bb\)	.	.	.	.	.	.	.	.	.	.
.	.	.	(16ff\	(16aa\	.	.	.	.	.	.	.	.	.	.
.	.	.	16ee\JJ)	16gg\JJ)	.	.	.	.	.	.	.	.	.	.
=20	=20	=20	=20	=20	=20	=20	=20	=20	=20	=20	=20	=20	=20	=20
4B-X\	.	4B-X\	4r	4r	.	.	.	.	.	.	.	.	.	.
4r	.	4r	(16gg\LL	16bb\LL	.	.	.	.	.	.	.	.	.	.
.	.	.	16aa\)	16ccc\	.	.	.	.	.	.	.	.	.	.
.	.	.	(16gg\	16bb\	.	.	.	.	.	.	.	.	.	.
.	.	.	16ff\JJ)	16aa\JJ	.	.	.	.	.	.	.	.	.	.
8C/L	6	8C/L	8ee\L	8gg\L	.	.	.	.	.	.	.	.	.	.
8AA/	.	8AA/	8ff\	8aa\J	.	.	.	.	.	.	.	.	.	.
8BB-X/	6 5	8BB-X/	8.ff\	4gg\	.	.	.	.	.	.	.	.	.	.
8C/J	6 5	8C/J	.	.	.	.	.	.	.	.	.	.	.	.
.	.	.	16ee\Jk	.	.	.	.	.	.	.	.	.	.	.
!LO:LB:g=original	!	!	!	!	!	!	!	!	!	!	!	!	!	!
=21	=21	=21	=21	=21	=21	=21	=21	=21	=21	=21	=21	=21	=21-	=21
4FF/	.	4FF/	4ff\	4ff\	4r	.	4r	.	4f\	Al-	4f/	Al-	4a\	Al-
4BB-X/	.	4BB-X/	4r	4r	4BB-X/	Al-	4d\	Al-	4d\	-le-	4d/	-le-	4f/	-le-
4GG/	.	4GG/	16g/LL	(16b\LL	4GG/	-le-	4B-X\	-le-	4g\	-lu-	4g/	-lu-	4b-X\	-lu-
.	.	.	16a/	16cc\)	.	.	.	.	.	.	.	.	.	.
.	.	.	16g/	(16b\	.	.	.	.	.	.	.	.	.	.
.	.	.	16f/JJ	16a\JJ)	.	.	.	.	.	.	.	.	.	.
4C/	.	4C/	8e/L	8g/L	4C/	-lu-	4e\	-lu-	4e\	-i-	4e/	-ia	4g/	-ia
.	.	.	8e/J	8g/J	.	.	.	.	.	.	.	.	.	.
=22	=22	=22	=22	=22	=22	=22	=22	=22	=22	=22	=22	=22	=22	=22
4AA/	.	4AA/	4a/	4cc\	4AA/	-ia	4c\	-ia	4a\	-a	(16a\LL	Al-	(16cc\LL	al-
.	.	.	.	.	.	.	.	.	.	.	16b\JJ)	.	16dd\JJ)	.
.	.	.	.	.	.	.	.	.	.	.	(16a\LL	-le-	(16cc\LL	-le-
.	.	.	.	.	.	.	.	.	.	.	16g\JJ)	.	16b\JJ)	.
!	!	!	!LO:TX:b:t=P:problem=# below	!	!	!	!	!	!	!	!LO:TX:b:t=P:problem=# below	!	!	!
4D/	.	4D/	4f#X/	4a/	(16D/LL	Al-	(16f\LL	Al-	4f#X\	Al-	8f#X/	-lu-	8a\	-lu-
.	.	.	.	.	16E/JJ)	.	16g\JJ)	.	.	.	.	.	.	.
.	.	.	.	.	(16D/LL	-le-	(16f\LL	-le-	.	.	8f#/	-ia	8a,<\	-ia,
.	.	.	.	.	16C/JJ)	.	16e\JJ)	.	.	.	.	.	.	.
4BB/	6 5	4BB/	4b/	4dd\	8BB/	-lu-	4d\	-lu-	(16g\LL	-le-	(16b\LL	Al-	(16dd\LL	al-
.	.	.	.	.	.	.	.	.	16a\JJ)	.	16cc\JJ)	.	16ee\JJ)	.
.	.	.	.	.	8BB/	-ia	.	.	(16g\LL	-lu-	(16b\LL	-le-	(16dd\LL	-le-
.	.	.	.	.	.	.	.	.	16f#\JJ)	.	16a\JJ)	.	16cc\JJ)	.
4E\	.	4E\	4g/	8b\L	(16E\LL	Al-	4e\	-ia	8e\	-i-	8g/	-lu-	8b\	-lu-
.	.	.	.	.	16F\JJ)	.	.	.	.	.	.	.	.	.
.	.	.	.	8gg\J	(16E\LL	-le-	.	.	8e\	-a	8g/	-ia	8b\	-ia
.	.	.	.	.	16D\JJ)	.	.	.	.	.	.	.	.	.
!	!	!	!	!	!LO:LB:g=original	!	!	!	!LO:LB:g=original	!	!LO:LB:g=original	!	!	!
=23	=23	=23	=23	=23	=23	=23	=23	=23	=23	=23	=23	=23	=23	=23
4C/	.	4C/	4cc\	(16cc\LL	8C/	-lu-	(16c\LL	Al-	(16e\LL	Al-	4r	.	4r	.
.	.	.	.	16dd\)	.	.	16d\JJ)	.	16f\JJ)	.	.	.	.	.
.	.	.	.	(16cc\	8C/	-ia	(16c\LL	-le-	(16e\LL	-le-	.	.	.	.
.	.	.	.	16b\JJ)	.	.	16B\JJ)	.	16d\JJ)	.	.	.	.	.
4F\	.	4F\	(16a/LL	8a/L	4F\	Al-	8A/	-lu-	8c/	-lu-	(16a\LL	Al-	(16cc\LL	al-
.	.	.	16b/)	.	.	.	.	.	.	.	16b\)	.	16dd\JJ)	.
.	.	.	(16a/	8a/J	.	.	8A/	-ia	8c/	-ia	(16a\	-le-	(16cc\LL	-le-
.	.	.	16g/JJ)	.	.	.	.	.	.	.	16g\JJ)	.	16b\JJ)	.
4D/	.	4D/	8f/L	(16dd\LL	4D/	-le-	(16d\LL	Al-	(16f\LL	Al-	8f/	-lu-	8a\	-lu-
.	.	.	.	16ee\)	.	.	16e\JJ)	.	16g\JJ)	.	.	.	.	.
.	.	.	8f/J	(16dd\	.	.	(16d\LL	-le-	(16f\LL	-le-	8f/	-ia	8a\	-ia
.	.	.	.	16cc\JJ)	.	.	16c\JJ)	.	16e\JJ)	.	.	.	.	.
4G\	.	4G\	(16b/LL	8b/L	4G\	-lu-	8B\	-lu-	8d\	-lu-	(16b\LL	Al-	(16dd\LL	al-
.	.	.	16cc/)	.	.	.	.	.	.	.	16cc\)	.	16ee\JJ)	.
.	.	.	(16b/	8b/J	.	.	8B\	-ia	8d\	-ia	(16b\	-le-	(16dd\LL	-le-
.	.	.	16a/JJ)	.	.	.	.	.	.	.	16a\JJ)	.	16cc\JJ)	.
!	!	!	!	!	!	!	!	!	!	!	!	!	!LO:LB:g=original	!
=24	=24	=24	=24	=24	=24	=24	=24	=24	=24	=24	=24	=24	=24	=24
4E\	.	4E\	8g/L	(16ee\LL	4E\	-ia	(16e\LL	Al-	(16g\LL	Al-	8g/	-lu-	8b\	-lu-
.	.	.	.	16ff\)	.	.	16f\JJ)	.	16a\JJ)	.	.	.	.	.
.	.	.	8g/J	(16ee\	.	.	(16e\LL	-le-	(16g\LL	-le-	8g/	-ia	8b\	-ia
.	.	.	.	16dd\JJ)	.	.	16d\JJ)	.	16f\JJ)	.	.	.	.	.
4A\	.	4A\	16cc\LL	8dd\L	4A\	Al-	8c\	-lu-	8e\	-lu-	(16cc\LL	al-	(16ee\LL	al-
.	.	.	16dd\	.	.	.	.	.	.	.	16dd\JJ)	.	16ff\JJ)	.
.	.	.	16cc\	16ee\L	.	.	8c\	-ia	8e\	-ia	(16cc\LL	-le-	(16ee\LL	-le-
.	.	.	16b\JJ	16ff\JJ	.	.	.	.	.	.	16b\JJ)	.	16dd\JJ)	.
!	!	!	!	!LO:LB:g=original	!	!	!LO:LB:g=original	!	!	!	!	!	!	!
4D/	.	4D/	16a\LL	16gg\LL	4D/	-le-	(16d\LL	Al-	(16f\LL	Al-	4a\	.	(4cc\	-lu-
.	.	.	16cc\	16aa\	.	.	16e\JJ)	.	16g\JJ)	.	.	.	.	.
.	.	.	16b\	16gg\	.	.	(16d\LL	-le-	(16f\LL	-le-	.	.	.	.
.	.	.	16a\JJ	16ff\JJ	.	.	16c\JJ)	.	16e\JJ)	.	.	.	.	.
!	!	!	!LO:LB:g=original	!	!	!	!	!	!	!	!	!	!	!
4G\	4	4G\	16b\LL	4ee\	4G\	-lu	8c\L	-lu	4d\	-lu-	4a\)	-lu-	4dd\)	.
.	.	.	16dd\	.	.	.	.	.	.	.	.	.	.	.
.	3	.	16cc\	.	.	.	8B\J	.	.	.	.	.	.	.
.	.	.	16b\JJ	.	.	.	.	.	.	.	.	.	.	.
=25	=25	=25	=25	=25	=25	=25	=25	=25	=25	=25	=25	=25	=25	=25
4C/	.	4C/	4cc\	8r	4C/	-ia	4c\	-ia	4e\	-ia	4g/	-ia,	4ee,<\	-ia,
.	.	.	.	8gg\L	.	.	.	.	.	.	.	.	.	.
8r	.	8r	8r	8aa\	8r	.	8r	.	8r	.	8r	.	8r	.
!	!	!LO:PB:g=original	!	!	!	!	!	!	!	!	!	!	!	!
8C/L	.	8C/L	8ee\L	8bb\J	8C/	quam	8G/	quam	8g\	quam	8ee\	quam	8b\	quam
8D/	.	8D/	8ff\	8r	8D/	di-	8A/	di-	8f\	di-	8dd\	fe-	8g/	fe-
8D/J	.	8D/J	8ff\J	8bb\L	8D/	-es	8d\	-es	8f\	-es	8dd\	-cit	8g/	-cit
8r	.	8r	8r	8gg\	8r	.	8r	.	8r	.	8r	.	8r	.
*	*	*	*	*	*	*	*	*	*	*	*	*ij	*	*
8G\	.	8G\	8gg\	8gg\J	8G\	quam	8G/	quam	8g\	quam	8b\	quam	8dd\	/quam
=26	=26	=26	=26	=26	=26	=26	=26	=26	=26	=26	=26	=26	=26	=26
8E\L	.	8E\	8ee\L	8r	8E\	fe-	8c\	fe-	8g\	fe-	8g/	fe-	8ee\	fe-
8C\J	6	8C/	8ee\J	8gg\L	8C/	-cit	8c\	-cit	8g\	-cit	8cc\	-cit	8ee\	-cit/
*	*	*	*	*	*	*	*	*	*	*	*	*Xij	*	*
8r	.	8r	8r	8aa\	8r	.	8r	.	8r	.	8r	.	8r	.
!	!	!	!	!	!	!	!	!	!LO:LB:g=original	!	!	!	!	!
8E\L	.	8E/	8ee\L	8gg\J	8D/	quam	8c\	quam	8g\	quam	8ee\	quam	8gg\	quam
8F\	.	8F\	8cc\	16dd\LL	8F\	fe-	8c\	fe-	8a\	fe-	8a\	fe-	8ff\	fe-
.	.	.	.	16ee\	.	.	.	.	.	.	.	.	.	.
8C\J	.	8C/	8ee\J	16ff\	8C/	-cit	8c\	-cit	8g\	-cit	8cc\	-cit	8ee\	-cit
.	.	.	.	16gg\JJ	.	.	.	.	.	.	.	.	.	.
4G\	4	8.G\	(16gg\LL	4ee\	8.G\	Do-	8.B\	Do-	8.g\	Do-	8.cc\	Do-	8.dd\	Do-
.	.	.	16ff\)	.	.	.	.	.	.	.	.	.	.	.
.	3	.	(16ee\	.	.	.	.	.	.	.	.	.	.	.
.	.	16G\	16dd\JJ)	.	16G\	-mi-	16A\	-mi-	16f\	-mi-	16b\	-mi-	16dd\	-mi-
=27	=27	=27	=27	=27	=27	=27	=27	=27	=27	=27	=27	=27	=27	=27
4C/	.	4C/	4cc\	8r	4C/	-nus	4G/	-nus	4e\	-nus	4cc\	-nus	4cc\	-nus
.	.	.	.	8gg\L	.	.	.	.	.	.	.	.	.	.
8r	.	8r	8r	8ff\	4r	.	4r	.	4r	.	4r	.	4r	.
8E\L	.	8E\L	8ee\	8ee\J	.	.	.	.	.	.	.	.	.	.
8F\	.	8F\	8a/L	8.dd\L	2r	.	2r	.	2r	.	2r	.	2r	.
8C\J	.	8C\J	8cc/J	.	.	.	.	.	.	.	.	.	.	.
.	.	.	.	16dd\Jk	.	.	.	.	.	.	.	.	.	.
4G\	4 3	4G\	8.cc\L	4ee\	.	.	.	.	.	.	.	.	.	.
.	.	.	16b\Jk	.	.	.	.	.	.	.	.	.	.	.
!	!	!	!	!	!LO:LB:g=original	!	!	!	!	!	!LO:LB:g=original	!	!LO:LB:g=original	!
=28	=28	=28	=28	=28	=28	=28	=28	=28	=28	=28	=28	=28	=28	=28
4C/	.	4C/	4cc\	8gg\L	4r	.	4r	.	4r	.	4r	.	4r	.
.	.	.	.	8gg\	.	.	.	.	.	.	.	.	.	.
8GG/L	.	8GG/L	8b\L	8gg\	8G\	E-	8B\	E-	8g\	E-	8b\	E-	8gg\	E-
8AA/J	.	8AA/J	8cc\	8gg\J	8A\	-xul-	8A\	-xul-	8c/	-xul-	8cc\	-xul-	8gg\	-xul-
8BB/L	.	8BB/L	8dd\	8ee\L	8B\	-te-	8G/	-te-	8d\	-te-	8dd\	-te-	8gg\	-te-
8GG/	.	8GG/	8b\J	8gg\J	8G\	-mus	8B\	-mus	8d\	-mus	8b\	-mus	8gg,<\	-mus,
8AA/	.	8AA/	8cc\L	8gg\L	8A\	et	8c\	et	8c/	et	8cc\	et	8gg\	et
8BB/J	.	8BB/J	8dd\J	16ff\L	8B\	lae-	8B\	lae-	8g\	lae-	8dd\	lae-	8gg\	le-
.	.	.	.	16ee\JJ	.	.	.	.	.	.	.	.	.	.
=29	=29	=29	=29	=29	=29	=29	=29	=29	=29	=29	=29	=29	=29	=29
8C\L	.	8C\L	8ee\L	8dd\L	8c\	-te-	8G/	-te-	8c/	-te-	8ee\	-te-	8gg\	-te-
16E\L	5	16E\L	16dd\L	8dd\J	16E\	-mur	16c\	-mur	16c/	-mur	16dd\	-mur	16ff\	-mur
16F\JJ	-	16F\JJ	16cc\JJ	.	16F\	in	16c\	in	16c/	in	16cc\	in	16ee\	in
!LO:TX:t=P:problem=mixed beam	!	!LO:TX:t=P:problem=mixed beam	!	!	!	!	!	!	!	!	!	!	!	!
!	!	!	!	!	!	!	!LO:LB:g=original	!	!	!	!	!	!	!
8G\L	8 4	8G\L	8cc\L	8ee\L	4G\	e-	4G/	e-	8.g\L	e-	(8cc\L	e-	4dd\	e-
8GG/J	7 3	8GG/J	8b\J	8gg\J	.	.	.	.	.	.	8b\J)	.	.	.
.	.	.	.	.	.	.	.	.	16f\Jk	.	.	.	.	.
!	!	!LO:LB:g=original	!	!	!	!	!	!	!	!	!	!	!	!
4C/	.	4C/	8cc\L	8gg\L	4C/	-a	4G/	-a	4e\	-a	4cc\	-a	4cc\	-a
.	.	.	8cc\	8ee\J	.	.	.	.	.	.	.	.	.	.
4GG/	4	4GG/	8cc\	16dd\LL	4r	.	4r	.	4r	.	4r	.	4r	.
.	.	.	.	16ee\	.	.	.	.	.	.	.	.	.	.
.	3	.	8b\J	16ff\	.	.	.	.	.	.	.	.	.	.
.	.	.	.	16gg\JJ	.	.	.	.	.	.	.	.	.	.
=30	=30	=30	=30	=30	=30	=30	=30	=30	=30	=30	=30	=30	=30	=30
4C/	.	4C/	4cc\	4ee\	8r	.	8r	.	8r	.	8r	.	8r	.
.	.	.	.	.	8C/	in	8c\	in	8g\	in	8cc\	in	8ee\	in
!	!	!	!	!LO:LB:g=original	!	!	!	!	!	!	!	!	!	!
4GG/	4	4GG/	4r	4r	4GG/	e-	8.B\L	e-	8.g\L	e-	(8cc\L	e-	4dd\	e-
.	3	.	.	.	.	.	.	.	.	.	8b\J)	.	.	.
.	.	.	.	.	.	.	16A\Jk	.	16f\Jk	.	.	.	.	.
!	!	!	!LO:LB:g=original	!	!	!	!	!	!	!	!	!	!	!
4C/	.	4C/	8gg\L	8r	4C/	-a	4G/	-a	4e\	-a	4cc\	-a	4cc\	-a
.	.	.	16ff\L	8ccc\L	.	.	.	.	.	.	.	.	.	.
.	.	.	16ee\JJ	.	.	.	.	.	.	.	.	.	.	.
4GG/	4	4GG/	4dd\	8.ccc\	4r	.	4r	.	4r	.	4r	.	4r	.
.	3	.	.	16bb\Jk	.	.	.	.	.	.	.	.	.	.
=31	=31	=31	=31	=31	=31	=31	=31	=31	=31	=31	=31	=31	=31	=31
4C/	.	4C/	8ee\L	8ccc\L	8r	.	8r	.	8r	.	8r	.	8r	.
.	.	.	8ee\J	8ccc\	8C/	in	8G/	in	8g\	in	8ee\	in	8cc\	in
4GG/	4	4GG/	4dd\	8.ccc\	4GG/	e-	4G/	e-	4g\	e-	(16dd\LL	e-	8cc\L	e-
.	.	.	.	.	.	.	.	.	.	.	16cc\	.	.	.
.	3	.	.	.	.	.	.	.	.	.	16dd\	.	8b\J	.
.	.	.	.	16ccc\Jk	.	.	.	.	.	.	16ee\JJ)	.	.	.
4C/	.	4C/	4ee\	4ccc\	4C/	-a	4G/	-a	4e\	-a	4cc\	-a	4cc\	-a
4r	.	4r	4r	4r	4r	.	4r	.	4r	.	4r	.	4r	.
!LO:TX:a:t=Repete a principio ſi pla\ncebit	!	!LO:TX:a:t=Repete a principio ſi opus fuerit	!LO:TX:a:t=Finis Repete a principio ſi placebit	!LO:TX:a:t=Repete a principio ſi placebit	!LO:TX:a:t=Repete a prin\ncipio ſi place\nbit	!	!LO:TX:a:t=Repete a principio ſi placebit	!	!	!	!LO:TX:a:t=Repete a pr\nincipio ſi \nplacebit	!	!LO:TX:b:t=J.B.	!
==	==	==	==	==	==	==	==	==	==	==	==	==	==	==
*-	*-	*-	*-	*-	*-	*-	*-	*-	*-	*-	*-	*-	*-	*-
!!!system-decoration: [(s1,s2,s3,s4,s5)][([(s6,s7)]s8)]s9
!!!RDF**kern: < = below
!!!EED: Leszek Kubiak
!!!EEV: 2020-12-29
!!!ENC: Tomasz Grochalski
!!!END: 2020-11-29
!!!YEC: Copyright 2022 Narodowy Instytut Fryderyka Chopina (https://polishscores.org)
!!!YEM: License CC-BY-4.0 (https://creativecommons.org/licenses/by/4.0)
